X:1
T:Title
%%score ( 1 2 ) { 3 | 4 }
L:1/8
Q:1/4=112
M:4/4
K:Eb
V:1 treble nm="Grand Piano, Soprano"
V:2 treble 
V:3 bass nm="Choir Pad, Seasons (Mendelssohn)"
V:4 bass 
V:1
 B2 G2 E2 D2- | DE [EG]4 [DF]2 | E2 [EA]2 [EG]2 [Dc]2- | [Dc][Dc] [EB]6 | %4
w: By~Felix~Mendelssohn~(1809\-1847) * * *||||
 [AB]2 [Ge]2 [EB]2 [EA]2- | [EA][EG] [EG]4 [EF]2 | [Ec]2 [Ec]2 [EF]2 [DA]2- | [DA][B,D] [B,E]6 | %8
w: ||||
 [EG]2 [B,G]2- [B,G][B,F] [B,F]2 | [B,F]2 [DA]4 [EG]2 | [GB]2 [GB]2 [_G=A]2 [GA]2 | [=Ac]2 [GB]6 | %12
w: ||||
 [AB]2 [Ge]2 [EB]2 [EA]2- | [EA][EG] [EG]4 [EF]2 | z8 | z2 A6 | [B,D]2 [B,E]6- | [B,E]2 z2 z4 |] %18
w: ||||||
V:2
 x8 | x8 | x8 | x8 | x8 | x8 | x8 | x8 | x8 | x8 | x8 | x8 | x8 | x8 | [Ec]2 [Ec]4 [EF]2- | %15
 [EF]2 E2 D2 C2 | x8 | x8 |] %18
V:3
 B,2 G,2 E,2 D,2- | D,E, B,4 B,2 | G,2 C2 B,2 B,2- | B,B, B,6 | D2 E2 E2 C2- | CC C4 C2 | %6
 C2[K:bass] F,2 F,2 F,2- | F,A, G,6 | B,2 B,2- B,B, B,2 | B,2 B,4 B,2 | B,2 B,2[K:treble] D2 D2 | %11
 D2 D6 | D2 E2 E2 C2- | CC C4 C2 | A,2 F,4 F,2- | F,2 F,6 | A,2 G,6- | G,2 z2 z4 |] %18
V:4
 z8 | z2 B,,4 B,,2 | B,,2 B,,2 B,,2 A,2- | A,A, G,6 | F,2 E,2 G,2 z2 | z B, A,4 A,2 | %6
 A,2 A,,2 A,,2 B,,2- | B,,B,, E,6 | E,2 D,2- D,D, D,2 | D,2 F,4 F,2 | E,2 D,2 D,2 D,2 | _G,2 =G,6 | %12
 F,2 E,2 G,2 z2 | z B, A,4 A,2 | z2 A,,4 A,,2- | A,,2 B,,6 | B,,2 E,6- | E,2 z2 z4 |] %18

